X:1
T:Zennor, 10.10.10.10.84
T:Frederick Charles Maker (1844-1927)
T:Zennor, 10.10.10.10.84
T:Public Domain
C:Frederick Charles Maker (1844-1927)
Z:Public Domain
%%score ( 1 2 ) ( 3 4 )
L:1/8
M:3/4
K:Ab
V:1 treble 
V:2 treble 
V:3 bass 
V:4 bass 
V:1
 [CE]2 [Ec]2 [DB]2 | (C2 D2) [EG]2 | [DF]3 [FA] [EG][DF] | [CE]6 | E2 [Ed]2 [Ed]2 | [Ec]4 [EA]2 | %6
 [EG]3 [EG] [=DA][DF] | [DB]6 | E2 A2 [DEGB]2 x4 | [EAc]4 [Ec]2 | c3 c dc | [DF]6 | %12
 [=B,A]2 [B,G]2 [B,A]2 | [=B,=D]4 [CE]2 | [EA]3 [EG] [Gc][GB] | A6 | A2 A2 A2 | [Ad]4 [Ad]2 | %18
 [Ac]4 A2 | A4 [CE]2 | [DF]4 [DA]2 | [CA]6 |] %22
V:2
 x6 | A4 x2 | x6 | x6 | E2 x4 | x6 | x6 | x6 | C4 x6 | x6 | [EF]6 | x6 | x6 | x6 | x6 | A6 | %16
 A2 A2 A2 | x6 | x4 A2 | A4 x2 | x6 | x6 |] %22
V:3
 [A,,E,]2 E,F, [A,,G,]2 | (A,,2 B,,2) [C,A,]2 | [D,A,]3 [D,A,] [D,A,][F,A,] | [A,C]6 | %4
 [G,B,]2 [E,G,]2 [G,B,]2 | A,4 [C,A,]2 | [B,,B,]3 [B,,E,] [B,,F,][B,,A,] | (A,4 G,2) | %8
 E,2 A,2 B,2 x4 | [A,,E,A,C]4 [_G,,E,A,C]2 | C3 C DC | [B,,F,B,]6 | [=D,F,]2 [D,F,]2 [D,F,]2 | %13
 [F,A,]4 [E,A,]2 | [E,C]3 [E,B,] [E,E][E,D] | [A,,C]6 | A,2 A,2 A,2 | [D,F]4 [F,D]2 | [A,E]4 A,2 | %19
 A,4 [A,,A,]2 | A,2 G,2 [D,F,]2 | [A,,E,]6 |] %22
V:4
 x2 A,,2 x2 | A,4 x2 | x6 | x6 | x6 | A,4 x2 | x6 | [E,,E,]6 | A,,6- E,4- | x6 | [F,,F,=A,]6 | x6 | %12
 x6 | x6 | x6 | x6 | A,2 A,2 A,2 | x6 | x4 A,2 | A,4 x2 | D,4 x2 | x6 |] %22

